!!!COM: Music21
!!!OTL: strathspey_Trip-To-Dublin--The
!!!OMV: strathspey_Trip-To-Dublin--The
**kern
*clefG2
*k[f#c#g#]
*A:
*M4/4
=1
16c#KL
8.eJ
8aL
8bJ
4cc#
8cc#L
8bJ
=
8aL
8bJ
8cc#L
8ddJ
8eeL
8ff#J
16eeKL
8.cc#J
=
8ff#L
8eeJ
8ddL
8ff#J
8eeL
8ddJ
8cc#L
8aJ
=
12bL
12cc#
12dd#XJ
12ff#L
12aa
12ff#J
16gg#KL
8.eeJ
4ee
=
16c#KL
8.eJ
8aL
8bJ
4cc#
8cc#L
8bJ
!!linebreak:original
=
8aL
8bJ
8cc#L
8ddJ
8eeL
8ff#J
16eeKL
8.cc#J
=
8ff#L
8eeJ
8ddL
8ff#J
8eeL
8ddJ
8cc#L
8aJ
=
12g#L
12a
12bJ
12ff#L
12ee
12ddJ
16cc#KL
8.aJ
4a
=||
*M4/4
16c#KL
8.eJ
8aL
8bJ
4cc#
8cc#L
8bJ
!!linebreak:original
=
8aL
8bJ
8cc#L
8ddJ
8eeL
8ff#J
16eeKL
8.cc#J
=
8ff#L
8eeJ
8ddL
8ff#J
8eeL
8ddJ
8cc#L
8aJ
=
12bL
12cc#
12dd#XJ
12ff#L
12aa
12ff#J
16gg#KL
8.eeJ
4ee
=
16c#KL
8.eJ
8aL
8bJ
4cc#
8cc#L
8bJ
=
8aL
8bJ
8cc#L
8ddJ
8eeL
8ff#J
16eeKL
8.cc#J
!!linebreak:original
=
8ff#L
8eeJ
8ddL
8ff#J
8eeL
8ddJ
8cc#L
8aJ
=
12g#L
12a
12bJ
12ff#L
12ee
12ddJ
16cc#KL
8.aJ
4a
=||
8aaL
8ff#J
8eeL
8ddJ
16cc#KL
8.bJ
4cc#
=
8ddL
8bJ
8cc#L
8aJ
8bL
8aJ
16g#KL
8.eJ
=
16f#KL
8.dJ
8aL
8f#J
8eL
8aJ
8cc#L
8aJ
!!linebreak:original
=
16bKL
8.f#J
8bL
8aJ
8aL
8g#J
16f#KL
8.eJ
=
8aaL
8ff#J
8eeL
8ddJ
16cc#KL
8.bJ
4cc#
=
8ddL
8bJ
8cc#L
8aJ
8bL
8aJ
16g#KL
8.eJ
=
16f#KL
8.dJ
8aL
8f#J
8eL
8aJ
8cc#L
8aJ
=
12g#L
12a
12bJ
12ff#L
12ee
12ddJ
16cc#KL
8.aJ
4a
!!linebreak:original
=||
8aaL
8ff#J
8eeL
8ddJ
16cc#KL
8.bJ
4cc#
=
8ddL
8bJ
8cc#L
8aJ
8bL
8aJ
16g#KL
8.eJ
=
16f#KL
8.dJ
8aL
8f#J
8eL
8aJ
8cc#L
8aJ
=
16bKL
8.f#J
8bL
8aJ
8aL
8g#J
16f#KL
8.eJ
=
8aaL
8ff#J
8eeL
8ddJ
16cc#KL
8.bJ
4cc#
!!linebreak:original
=
8ddL
8bJ
8cc#L
8aJ
8bL
8aJ
16g#KL
8.eJ
=
16f#KL
8.dJ
8aL
8f#J
8eL
8aJ
8cc#L
8aJ
=
12g#L
12a
12bJ
12ff#L
12ee
12ddJ
16cc#KL
8.aJ
4a
=||
*-
